X: 35277
T: Rose In The Heather, The
R: jig
M: 6/8
K: Dmajor
|:FAF EAE|DFA ~BAF|ABd ede|fdB AFE|
FAF EAE|DFA ~BAF|AdB AFE|FDD D3:|
|:fdB ABd|faa afd|[gd](3ggg fed|Bee ede|
f~dB ABd|~faa afd|~baf ~gfe|1 fdd d2 e:|2 fdB AFE||
FAd EAc|DFA ~BAF|ABd ede|fdB AFE|
FA,A, EA,A,|DFA ~BAF|AdB AFE|FDD D2 e||
fdd eAA|dAA BAF|ABd ede|fdB AFE|
FAd EAc|DFA ~BAF|AdB AFE|FDD D3|
|:f(3fff edB|~faa afd|[gd](3ggg fed|Bee ede|
f~dB ABd|faa afd|baf gfe|1 fdd d2 e:|2 fdB AFE|[A,DAf]3||

